static/img/svg/x-circle.svg

<svg xmlns="http://www.w3.org/2000/svg" width="24" height="24" viewBox="0 0 24 24"><path d="M14.293 8.293L12 10.586 9.707 8.293 8.293 9.707 10.586 12l-2.293 2.293 1.414 1.414L12 13.414l2.293 2.293 1.414-1.414-2.291-2.291 2.292-2.296z"/><path d="M12 2C6.486 2 2 6.486 2 12s4.486 10 10 10 10-4.486 10-10S17.514 2 12 2zm0 18c-4.411 0-8-3.589-8-8s3.589-8 8-8 8 3.589 8 8-3.589 8-8 8z"/></svg>

<svg xmlns="http://www.w3.org/2000/svg" width="24" height="24" viewBox="0 0 24 24"><path d="M14.293 8.293L12 10.586 9.707 8.293 8.293 9.707 10.586 12 8.293 14.293 9.707 15.707 12 13.414 14.293 15.707 15.707 14.293 13.416 12.002 15.708 9.706z"/><path d="M12,2C6.486,2,2,6.486,2,12s4.486,10,10,10s10-4.486,10-10S17.514,2,12,2z M12,20c-4.411,0-8-3.589-8-8s3.589-8,8-8 s8,3.589,8,8S16.411,20,12,20z"/></svg>
